ui/StatusQ/src/assets/img/icons/arrow-bottom.svg

<svg fill="none" height="20" viewBox="0 0 20 20" width="20" xmlns="http://www.w3.org/2000/svg"><path clip-rule="evenodd" d="m15.0964 9.05604-4.4964 4.08766v-10.6437h-1.20004v10.6436l-4.49635-4.08756-.8072.88792 5.5 5.00004.40359.3669.4036-.3669 5.5-5.00004zm-12.0964 8.54396h14v-1.2h-14z" fill="#09101c" fill-rule="evenodd"/></svg>

<svg width="20" height="20" viewBox="0 0 20 20" fill="none" xmlns="http://www.w3.org/2000/svg">
<path fill-rule="evenodd" clip-rule="evenodd" d="M15.0964 9.05604L10.6 13.1437V2.5H9.39996V13.1436L4.90361 9.05604L4.09641 9.94396L9.59641 14.944L10 15.3109L10.4036 14.944L15.9036 9.94396L15.0964 9.05604ZM3 17.6H17V16.4H3V17.6Z" fill="#09101C"/>
</svg>
